packages/elvis-assets-icons/icons/svg/src/zoom_out.svg

<svg width="24" height="24" viewBox="0 0 24 24" fill="none" xmlns="http://www.w3.org/2000/svg">
<g clip-path="url(#clip0)">
<path fill-rule="evenodd" clip-rule="evenodd" d="M9.81203 1.49902C8.16783 1.49902 6.56056 1.9866 5.19348 2.90008C3.82639 3.81357 2.76089 5.11193 2.13173 6.63099C1.50257 8.15004 1.33799 9.82156 1.65883 11.4341C1.97966 13.0467 2.77149 14.528 3.93417 15.6905C5.09686 16.8531 6.57818 17.6447 8.1908 17.9654C9.80343 18.2861 11.4749 18.1213 12.9939 17.492C14.5129 16.8626 15.8111 15.797 16.7245 14.4298C17.6378 13.0626 18.1252 11.4553 18.125 9.81111C18.1248 7.60652 17.2488 5.49231 15.6899 3.93352C14.1309 2.37473 12.0166 1.49902 9.81203 1.49902ZM4.3601 1.65289C5.97387 0.574573 7.87115 -0.000976562 9.81203 -0.000976562C12.4144 -0.000976562 14.9102 1.03274 16.7505 2.8728C18.5907 4.71286 19.6247 7.20856 19.625 9.81094C19.6252 11.7518 19.0499 13.6492 17.9718 15.263C16.8936 16.8769 15.3611 18.1349 13.5681 18.8777C11.775 19.6206 9.80188 19.8151 7.89827 19.4366C5.99466 19.0581 4.24605 18.1236 2.87357 16.7512C1.50109 15.3789 0.566386 13.6304 0.187661 11.7268C-0.191063 9.82328 0.00320345 7.85016 0.745894 6.057C1.48859 4.26385 2.74634 2.7312 4.3601 1.65289Z" fill="black"/>
<path fill-rule="evenodd" clip-rule="evenodd" d="M4.5 9.74902C4.5 9.33481 4.83579 8.99902 5.25 8.99902H14.25C14.6642 8.99902 15 9.33481 15 9.74902C15 10.1632 14.6642 10.499 14.25 10.499H5.25C4.83579 10.499 4.5 10.1632 4.5 9.74902Z" fill="black"/>
<path fill-rule="evenodd" clip-rule="evenodd" d="M15.6907 15.6886C15.9836 15.3958 16.4585 15.3958 16.7514 15.6887L23.7804 22.7187C24.0732 23.0116 24.0732 23.4865 23.7803 23.7794C23.4874 24.0722 23.0125 24.0722 22.7196 23.7793L15.6906 16.7493C15.3978 16.4564 15.3978 15.9815 15.6907 15.6886Z" fill="black"/>
</g>
<defs>
<clipPath id="clip0">
<rect width="24" height="24" fill="white"/>
</clipPath>
</defs>
</svg>

<svg width="24" height="24" fill="none" xmlns="http://www.w3.org/2000/svg"><g clip-path="url(#clip0)" fill-rule="evenodd" clip-rule="evenodd" fill="#000"><path d="M9.812 1.499a8.313 8.313 0 100 16.626 8.313 8.313 0 000-16.626zm-5.452.154A9.813 9.813 0 1115.264 17.97 9.813 9.813 0 014.36 1.653z"/><path d="M4.5 9.749a.75.75 0 01.75-.75h9a.75.75 0 010 1.5h-9a.75.75 0 01-.75-.75zM15.69 15.689a.75.75 0 011.061 0l7.03 7.03a.75.75 0 01-1.061 1.06l-7.03-7.03a.75.75 0 010-1.06z"/></g><defs><clipPath id="clip0"><path fill="#fff" d="M0 0h24v24H0z"/></clipPath></defs></svg>
